dist/images/cup.svg

<?xml version="1.0" encoding="UTF-8"?>
<svg width="60px" height="64px" viewBox="0 0 60 64" version="1.1" xmlns="http://www.w3.org/2000/svg" xmlns:xlink="http://www.w3.org/1999/xlink">
    <!-- Generator: Sketch 49.1 (51147) - http://www.bohemiancoding.com/sketch -->
    <title>icon/ cup</title>
    <desc>Created with Sketch.</desc>
    <defs>
        <path d="M56.25,2.375 L47.422875,2.375 L47.496875,1.33925 C47.521625,0.993125 47.401375,0.65225 47.165,0.39825 C46.9285,0.14425 46.597,0 46.25,0 L13.75,0 C13.403,0 13.0715,0.14425 12.835125,0.39825 C12.598625,0.65225 12.478375,0.993125 12.50325,1.33925 L12.577125,2.375 L3.75,2.375 C1.68225,2.375 0,4.04325 0,6.09375 L0,9.58375 C0,14.71825 1.6055,19.62025 4.643,23.75975 C7.680375,27.89925 11.87475,30.901625 16.77275,32.4425 L19.028875,33.1515 C20.08825,34.147625 21.267625,34.98875 22.54825,35.662125 C22.5175,35.856 22.5,36.052375 22.5,36.25 C22.5,37.8795 23.545125,39.269 25,39.785 L25,42.875 L21.25,42.875 C19.18225,42.875 17.5,44.55725 17.5,46.625 L17.5,50.75 L16.25,50.75 C14.18225,50.75 12.5,52.43225 12.5,54.5 L12.5,62.75 C12.5,63.440375 13.059625,64 13.75,64 L46.25,64 C46.940375,64 47.5,63.440375 47.5,62.75 L47.5,54.5 C47.5,52.43225 45.81775,50.75 43.75,50.75 L42.5,50.75 L42.5,46.625 C42.5,44.55725 40.81775,42.875 38.75,42.875 L35,42.875 L35,39.787125 C36.442375,39.27825 37.5,37.897875 37.5,36.25 C37.5,36.0525 37.4825,35.8565 37.451875,35.663 C38.7365,34.988125 39.917125,34.14425 40.977625,33.14475 C40.997,33.139625 41.0165,33.135 41.03575,33.128875 L43.221125,32.4425 C48.12075,30.901875 52.316625,27.898875 55.35525,23.758375 C58.393875,19.61775 60,14.7145 60,9.57875 L60,6.09375 C60,4.04325 58.31775,2.375 56.25,2.375 Z M45.97675,22.624 L46.88725,9.875 L52.49725,9.875 C52.40575,14.974 49.965125,19.7075 45.96775,22.72225 C45.97025,22.6895 45.9745,22.65675 45.97675,22.624 Z M14.023125,22.62325 C14.0255,22.65725 14.028875,22.69125 14.0315,22.72525 C10.02625,19.712625 7.591,15.000625 7.5025,9.875 L13.11275,9.875 L14.023125,22.62325 Z M2.5,9.58375 L2.5,6.09375 C2.5,5.410375 3.049125,4.875 3.75,4.875 L12.755625,4.875 L12.934125,7.375 L6.25,7.375 C5.559625,7.375 5,7.934625 5,8.625 L5,9.585 C5,16.48275 8.69275,22.773875 14.66525,26.11425 C15.032125,27.331375 15.542625,28.496625 16.18325,29.587375 C7.9425,26.395375 2.5,18.527 2.5,9.58375 Z M43.75,53.25 C44.43925,53.25 45,53.81075 45,54.5 L45,61.5 L15,61.5 L15,54.5 C15,53.81075 15.56075,53.25 16.25,53.25 C16.521375,53.25 43.213375,53.25 43.75,53.25 Z M38.75,45.375 C39.43925,45.375 40,45.93575 40,46.625 L40,50.75 L20,50.75 L20,46.625 C20,45.93575 20.56075,45.375 21.25,45.375 C23.264875,45.375 36.744375,45.375 38.75,45.375 Z M27.5,42.875 L27.5,40 L32.5,40 L32.5,42.875 L27.5,42.875 Z M33.75,37.5 L26.25,37.5 C25.56075,37.5 25,36.93925 25,36.25 C25,35.565375 25.555125,35 26.25,35 L33.75,35 C34.432,35 35,35.555 35,36.25 C35,36.94025 34.44025,37.5 33.75,37.5 Z M39.652375,30.944875 C38.652,31.96525 37.51125,32.8075 36.25625,33.462875 C35.57775,32.8535 34.687875,32.5 33.75,32.5 L26.25,32.5 C25.315125,32.5 24.432375,32.840375 23.742625,33.46225 C22.574625,32.851625 21.504125,32.079 20.5545,31.15175 C18.194,28.8475 16.752,25.765 16.516875,22.445875 L15.09275,2.5 L44.90725,2.5 L43.483125,22.445875 C43.2515,25.685 41.881625,28.67325 39.652375,30.944875 Z M57.5,9.57875 C57.5,18.52275 52.057625,26.391625 43.817,29.585 C44.457375,28.4945 44.967125,27.33 45.333625,26.11475 C45.33375,26.11475 45.333875,26.114625 45.333875,26.114625 C51.29625,22.7795 55,16.44275 55,9.5775 L55,8.625 C55,7.934625 54.440375,7.375 53.75,7.375 L47.06575,7.375 L47.24425,4.875 L56.25,4.875 C56.950875,4.875 57.5,5.410375 57.5,6.09375 L57.5,9.57875 Z M41.25,56.125 C41.940375,56.125 42.5,56.684625 42.5,57.375 C42.5,58.065375 41.940375,58.625 41.25,58.625 L23.75,58.625 C23.059625,58.625 22.5,58.065375 22.5,57.375 C22.5,56.684625 23.059625,56.125 23.75,56.125 L41.25,56.125 Z M37.93775,14.545 C37.79075,14.0925 37.3995,13.762625 36.928625,13.69425 L32.798375,13.09425 L31.07375,9.358625 C30.871,8.9195 30.433125,8.63675 29.9495,8.632625 C29.462125,8.629875 29.02325,8.903875 28.813,9.3395 L27.040625,13.013625 L22.660125,13.69625 C22.19225,13.769125 21.805875,14.100125 21.661875,14.55125 C21.517875,15.002375 21.641,15.496 21.980125,15.8265 L24.983125,18.753875 L24.27425,22.887375 C24.19375,23.35625 24.3865,23.83025 24.7715,24.109875 C25.157125,24.390125 25.667625,24.426125 26.087875,24.205125 L29.80125,22.253375 L33.513375,24.205125 C33.9345,24.4265 34.444875,24.38975 34.82975,24.11 C35.214625,23.83025 35.4075,23.356375 35.327125,22.887375 L34.61825,18.753875 L37.6215,15.826375 C37.96225,15.49425 38.084875,14.9975 37.93775,14.545 Z M32.4025,17.422375 C32.108,17.7095 31.9735,18.12325 32.043125,18.52875 L32.435,20.813625 L30.383125,19.734875 C30.019,19.543375 29.584,19.543375 29.219875,19.734875 L27.1665,20.814125 L27.558375,18.528875 C27.628,18.123375 27.4935,17.709625 27.199,17.4225 L25.5155,15.7815 L28.07375,15.382625 C28.479625,15.319375 28.828625,15.060625 29.007125,14.690625 L29.913875,12.810875 L30.812625,14.757625 C30.989875,15.141625 31.34925,15.409875 31.767875,15.47075 L34.062625,15.804125 L32.4025,17.422375 Z M18.75,56.125 C19.44,56.125 20,56.685 20,57.375 C20,58.065 19.44,58.625 18.75,58.625 C18.06,58.625 17.5,58.065 17.5,57.375 C17.5,56.685 18.06,56.125 18.75,56.125 Z" id="path-1"></path>
    </defs>
    <g id="Symbols" stroke="none" stroke-width="1" fill="none" fill-rule="evenodd">
        <g id="icon/-cup">
            <mask id="mask-2" fill="white">
                <use xlink:href="#path-1"></use>
            </mask>
            <use id="Shape" fill="#1B39BA" fill-rule="nonzero" xlink:href="#path-1"></use>
            <rect id="Rectangle" fill="#40B550" mask="url(#mask-2)" x="20" y="7" width="20" height="19"></rect>
        </g>
    </g>
</svg>

<svg width="60" height="64" viewBox="0 0 60 64" xmlns="http://www.w3.org/2000/svg" xmlns:xlink="http://www.w3.org/1999/xlink"><title>icon/ cup</title><defs><path d="M56.25 2.375h-8.827l.074-1.036A1.25 1.25 0 0 0 46.25 0h-32.5a1.25 1.25 0 0 0-1.247 1.34l.074 1.035H3.75C1.682 2.375 0 4.043 0 6.094v3.49A23.805 23.805 0 0 0 4.643 23.76a23.807 23.807 0 0 0 12.13 8.683l2.256.709a15.997 15.997 0 0 0 3.52 2.51c-.032.194-.049.39-.049.588a3.756 3.756 0 0 0 2.5 3.535v3.09h-3.75a3.754 3.754 0 0 0-3.75 3.75v4.125h-1.25a3.754 3.754 0 0 0-3.75 3.75v8.25c0 .69.56 1.25 1.25 1.25h32.5c.69 0 1.25-.56 1.25-1.25V54.5a3.754 3.754 0 0 0-3.75-3.75H42.5v-4.125a3.754 3.754 0 0 0-3.75-3.75H35v-3.088a3.75 3.75 0 0 0 2.452-4.124 15.939 15.939 0 0 0 3.526-2.518l.058-.016 2.185-.686a23.812 23.812 0 0 0 12.134-8.685A23.81 23.81 0 0 0 60 9.578V6.095c0-2.05-1.682-3.719-3.75-3.719zM45.977 22.624l.91-12.749h5.61a16.47 16.47 0 0 1-6.53 12.847c.003-.033.008-.065.01-.098zm-31.954 0l.008.101a16.4 16.4 0 0 1-6.529-12.85h5.61l.911 12.748zM2.5 9.583v-3.49c0-.684.55-1.219 1.25-1.219h9.006l.178 2.5H6.25c-.69 0-1.25.56-1.25 1.25v.96c0 6.898 3.693 13.189 9.665 16.53a15.943 15.943 0 0 0 1.518 3.472C7.943 26.395 2.5 18.527 2.5 9.584zM43.75 53.25c.69 0 1.25.56 1.25 1.25v7H15v-7c0-.69.56-1.25 1.25-1.25h27.5zm-5-7.875c.69 0 1.25.56 1.25 1.25v4.125H20v-4.125c0-.69.56-1.25 1.25-1.25h17.5zm-11.25-2.5V40h5v2.875h-5zm6.25-5.375h-7.5a1.25 1.25 0 0 1 0-2.5h7.5a1.25 1.25 0 0 1 0 2.5zm5.902-6.555c-1 1.02-2.14 1.862-3.396 2.518a3.754 3.754 0 0 0-2.506-.963h-7.5c-.935 0-1.818.34-2.507.962a13.51 13.51 0 0 1-7.226-11.016L15.093 2.5h29.814l-1.424 19.946a13.472 13.472 0 0 1-3.83 8.499zM57.5 9.579c0 8.944-5.442 16.813-13.683 20.006a15.98 15.98 0 0 0 1.517-3.47C51.296 22.78 55 16.443 55 9.578v-.953c0-.69-.56-1.25-1.25-1.25h-6.684l.178-2.5h9.006c.7 0 1.25.535 1.25 1.219v3.485zM41.25 56.125a1.25 1.25 0 1 1 0 2.5h-17.5a1.25 1.25 0 1 1 0-2.5h17.5zm-3.312-41.58a1.25 1.25 0 0 0-1.01-.85l-4.13-.6-1.724-3.736a1.25 1.25 0 0 0-2.261-.02l-1.772 3.675-4.38.682a1.25 1.25 0 0 0-.68 2.13l3.002 2.928-.709 4.133a1.25 1.25 0 0 0 1.814 1.318l3.713-1.952 3.712 1.952a1.25 1.25 0 0 0 1.814-1.318l-.709-4.133 3.003-2.928a1.25 1.25 0 0 0 .317-1.281zm-5.535 2.877a1.25 1.25 0 0 0-.36 1.107l.392 2.285-2.052-1.08a1.25 1.25 0 0 0-1.163 0l-2.053 1.08.391-2.285a1.25 1.25 0 0 0-.359-1.107l-1.684-1.64 2.559-.4a1.25 1.25 0 0 0 .933-.691l.907-1.88.899 1.947c.177.384.536.652.955.713l2.295.333-1.66 1.618zM18.75 56.125a1.25 1.25 0 1 1 0 2.5 1.25 1.25 0 0 1 0-2.5z" id="a"/></defs><g fill="none" fill-rule="evenodd"><mask id="b" fill="#fff"><use xlink:href="#a"/></mask><use fill="#1B39BA" fill-rule="nonzero" xlink:href="#a"/><path fill="#40B550" mask="url(#b)" d="M20 7h20v19H20z"/></g></svg>
